X:1
T:Nocturne in E-flat major, H 24. Molto moderato
T:Nocturne in E-flat major, H 24. Molto moderato 
T:Nocturnes
T:John Field
C:John Field
%%score { ( 1 4 ) | ( 2 3 ) }
L:1/8
Q:1/4=105
M:12/8
K:Eb
V:1 treble nm="Piano" snm="Pno."
V:4 treble 
V:2 bass 
V:3 bass 
V:1
"^Molto Moderato"!mf!"_dolce" (B3 | e6- e3 f3 |{/e} d3 c3 d3 B3 | e3) z2 z g3 z2 z | b3- b2 z z6 | %5
 (e6- e3 f3 | d3!>(! c'3 b3!>)! d3 | e6-) e6- | e3 z2 z!>(! (e3- e2!>)! d | %9
!>(! d3!>)! c6!pp! !>!_c3 | !invertedturn!B3!>(! _a6!>)! g3 | !>!f3 e6) z2 z | %12
!>(!"_cresc." (g3 f3 (f!>)!!<(! e2-) e2 d!<)! | d3 c6 !>!_c3 | !invertedturn!B3!>(! c'6!>)! d3 | %15
 e6) z2 z[Q:1/4=115]"_scherz." (efe | d2 c'!>(! b3- b2!>)! g a2 f | e3-{fed} e2 g B3) (gfe | %18
 e3 c'3- c'b"_dim."g baf | e2) z[K:bass] B,, z z E,,2 z[K:treble]!f!{/f} (ede | f6-) f3 (f3 | %21
 !invertedturn!f3!>(! _e'6!>)! d'3 | !>!c'3 b3-) (bd'c' =abg | !>!=e3 !>!f6) (d2 _e | %24
!>(! g3 f3-)!>)! f(.f.f .f.f.f) |!>(! _g3 f3!>)! (!>!gf)(!>!=g f)(=a!>!f | c') z z b6 z2 z | %27
 z2 z[Q:1/4=110]"^ritard."!<(! (f3 f3 g3!<)! |[Q:1/4=110]"^a tempo"!>(! a6-)!>)! a3 (a3 | %29
{/a} !>!g3 f3 g3 a3 |!>(! g3!>)! f3) z6 | z6!>(! (g3-!>)! g2 f | e6- e3 c3 | %33
[Q:1/4=110]"_ritard         -               -                 -                -                   -" d2 z[Q:1/4=105]"^T" e2 z[Q:1/4=100]"^T" f2) z[Q:1/4=98]"^T" (g3 | %34
[Q:1/4=95]"^T" e6-)[Q:1/4=92]"^T" e3[Q:1/4=110]"^a tempo" (edc |!mf! B2) z !>!a6 (agf | %36
 e) z z!8va(! !>!e'6 (e'd'c' | b)!>(!a'g' f'e'd' c'b!>)!=a _agf!8va)! | e3-{fed} e2 g B3{/f} (ede | %39
 !>!g3"_cresc." f6){/g} (f=ef | c'3 (b3-) b=a_a gaf |{GB} (e)gb e'd'c'"_dim." bc'g acd | %42
 e2) z!pp! ([bg']2 z [ge']2) z!mf! (B3 | e6- e3 f3 | d3 c3 d3 B3 | e3) z2 z g3 z2 z | %46
 b6- bb=a _agf | (e3 e'3-) (e'/d'/g'/f'/e'/d'/ c'/b/=a/_a/g/f/ | %48
!>(! e-)!>)!(e/d/^c/d/ e/=e/f/g/a/b/ !>!d'>=c'b/a/ g/a/b/a/g/f/ |!>(!{=efg} f3!>)! _e3) z6 | %50
 z6 z2 z!pp!!>(! (e2!>)! d |!>(! d3!>)! c6 !>!_c3 | !invertedturn!B3 !>!_a6 g3 | !>!f3 e6) z2 z | %54
 (g3!<(! f3 f3 e2!<)! d |!>(! d2!>)! c!>(! a3-!>)!!<(! a/g/!<)!!>(!c'/b/a/g/ f/e/d/f/e/_c/!>)! | %56
 !invertedturn!B3!>(! !>!c'6!>)! d3 | e6) z6 |!>(! ((c'd_c') (c'db) (bda)!>)! (adf) | %59
!<(! (e)Bg ebg e'/b/g'/!<)!d'/e'/d'/ ^c'/d'/f'/e'/d'/=c'/ |!>(! ((c')d_c') (c'db) (bda)!>)! (adf) | %61
 e3-{fed} e2 g B3) z2 z |"_crescendo" (=ecf- fcg- g_ca- aB=a- | aBb- b_d_d'"_dim." =bc'g _b_af) | %64
!8va(! b'3- (b'/!pp!=a'/_a'/g'/f'/e'/!8va)! d'/c'/b/=a/_a/g/ b/a/=e/f/c/d/ | %65
 _e2) z ([bg']3 [ge']) z z ([bg']3 | [ge']6-) [ge']3 |] %67
V:2
 z2 z |!p!!ped! (E,GE B,GE G,GE B,GE)!ped-up! |!ped! (B,,DB, A,DB, F,DB, A,DB,!ped-up! | %3
!ped! E,)GE G,GE B,GE G,GE!ped-up! | E,GE G,GE B,GE G,GE |!ped! E,GE B,GE G,GE B,GE!ped-up! | %6
!ped! B,,DB, A,DB, F,DB, A,DB,!ped-up! |!ped! E,GE B,GE G,GE B,GE!ped-up! | %8
 E,GE B,GE!ped! G,GE!ped-up! B,GE |!ped! A,,AE CAE!ped-up! A,AE!ped! _CAE!ped-up! | %10
!ped! B,,AD B,AD F,AD B,AD!ped-up! |!ped! E,GE B,GE G,GE B,GE!ped-up! | %12
!ped! E,GE B,GE G,GE B,GE!ped-up! |!ped! A,,AE CAE!ped-up! A,AE!ped! _CAE!ped-up! | %14
!ped! B,,DB, A,DB, F,DB, A,DB,!ped-up! |!ped! E,GG, B,,EG,!ped-up! E,EG,!ped! B,,EG,!ped-up! | %16
!ped! F,DA, B,,DA,!ped-up! F,DA,!ped! B,,DA,!ped-up! | %17
!ped! E,EG, B,,EG,!ped-up! E,EG,!ped! B,,EG,!ped-up! | %18
!ped! F,DA, B,,DA,!ped-up! F,DA,!ped! B,,DA,!ped-up! |!ped! E,EG, E,E-G, [E,G,E]3!ped-up! z2 z | %20
!ped! B,,DB, F,DB, D,DB, F,DB,!ped-up! |!ped! F,,E=A, F,EA, F,,EA, F,EA,!ped-up! | %22
!ped! B,,DB, F,DB, D,DB, F,DB,!ped-up! |!ped! B,,DB, F,!ped-up!DB, D,DB,!ped! F,DB,!ped-up! | %24
!ped! B,,DB,!ped-up!!ped! F,DB, D,!ped-up!DB, F,DB, | %25
!ped! F,,E=A,!ped-up!!ped! F,EA,!ped-up!!ped! C,EA,!ped-up!!ped! F,EA, | %26
!ped! B,,DB,!ped-up!!ped! F,DB, D,DB, F,DB,!ped-up! | %27
 B,,DF,!ped! B,,_DF,!ped-up!!ped! _A,,CF,!ped-up!!ped! G,,B,=E, | %28
!ped! F,,FC!p! A,FC F,FC A,FC!ped-up! |!ped! C,=EC B,!ped-up!EC!ped! C,EC B,EC!ped-up! | %30
!ped! F,,FC!ped-up!!ped! A,FC F,FC!ped-up! A,FC |!ped! B,,=DB, A,DB,!ped-up! B,,DB, A,DB, | %32
!ped! E,GE B,GE A,FE CFE!ped-up! |!ped! B,,DB, A,!ped-up!DB,!ped! B,,DB, A,DB,!ped-up! | %34
!ped! E,EG, B,,EG, E,EG,!ped-up! B,,EG, | %35
!ped! F,DA,!ped-up!!ped! B,,DA,!ped-up! F,!ped-up!DA,!ped! B,,DA,!ped-up! | %36
!ped! E,EG, B,,EG, E,EG, B,,EG,!ped-up! | %37
!ped! F,DA, B,,D!ped-up!A,!ped! F,DA,!ped-up!!ped! B,,DA,!ped-up! | %38
!ped! E,EG, B,,E!ped-up!G,!ped! E,EG, B,,EG,!ped-up! | %39
!ped! =A,,FC!ped-up!!ped! CFC!ped-up!!ped! _CFD!ped-up!!ped! B,FD | %40
!ped! (G,EB,!ped-up!!ped! _G,=EB,!ped-up!!ped! F,F=B,!ped-up!!ped! _EFA)!ped-up! | %41
!ped! B,,EB, G,E!ped-up!B,!ped! B,,DA, F,B,A,!ped-up! |!ped! E,GE B,AE E,3 z2!ped-up! z | %43
!ped! E,GE B,GE!ped-up!!ped! C,E=A, F,EA, |!ped! B,,DB, _A,!ped-up!DB,!ped! F,DB, A,DB,!ped-up! | %45
!ped! E,GE G,GE B,GE!ped-up! G,GE |!ped! E,GE B,GE G,GE B,FE!ped-up! | %47
!ped! C,GE B,GE G,GE!ped-up! B,GE |!ped! B,,AD B,!ped-up!AD!ped! F,AD B,AD!ped-up! | %49
!ped! E,GE!ped-up!!ped! B,GE G,GE!ped-up! B,GE | %50
!>(!!ped! G,,!>)!F=B,!pp! G,FB,!ped-up! D,FB, G,FB, | %51
!ped! A,,EC!ped-up! A,!ped-up!EC E,EC!ped! A,E_C | %52
!ped! B,,DB, A,!ped-up!DB,!ped! B,,DB, A,DB,!ped-up! | %53
!ped! E,GE!ped-up!!ped! B,GE G,GE!ped-up! B,GE |!ped! G,,F=B, G,FB,!ped-up! D,FB, G,FB, | %55
!ped! A,,EC!ped-up! A,EC B,,EC A,E_C |!ped! B,,DB, A,D!ped-up!B,!ped! B,,DA, F,!ped-up!B,A, | %57
!ped! E,GE B,GE G,GE B,!ped-up!GE |!ped! B,,AD!ped-up!!ped! B,AD!ped-up!!ped! F,AD B,AD | %59
!ped! E,GE B,!ped-up!GE!ped! G,GE!ped-up! B,GE | %60
!ped! B,,AD!ped-up!!ped! B,AD!ped-up!!ped! F,AD!ped-up! B,AD | %61
!>(!!ped! E,!>)!GE B,GE G,GE!ped-up! B,GE | %62
!ped! =A,FE!ped-up!!ped! CFE!ped-up!!ped! _CFD!ped-up!!ped! B,FD | %63
!ped! G,EB,!ped-up!!ped! G,=EB,!ped-up!!ped! A,FC!ped-up!!ped! A,F_C!ped-up! | %64
!ped! B,,EB, G,!ped-up!EB,!ped! B,,DB,!ped-up!!ped! F,B,A,!ped-up! | %65
!ped! E,GE B,GE E,GE B,GE!ped-up! | E,GE B,GE E,3 |] %67
V:3
 x3 | x12 | x12 | x12 | x12 | x12 | x12 | x12 | x12 | x12 | x12 | x12 | x12 | x12 | x12 | x12 | %16
 x12 | x12 | x12 | x4 E2 x6 | x12 | x12 | x12 | x12 | x12 | x12 | x12 | x12 | x12 | x12 | x12 | %31
 x12 | x12 | x12 | x12 | x12 | x12 | x12 | x12 | =A,,3 =A,3 _A,6 | x9 (C A,2) | x12 | x12 | x12 | %44
 x12 | x12 | x12 | x12 | x12 | x12 | x12 | x12 | x12 | x12 | x12 | x12 | x12 | x12 | x12 | x12 | %60
 x12 | x12 | x3 =A,3 _A,6 | G,3 G,3 A,3 A,3 | x12 | x12 | x9 |] %67
V:4
 x3 | x12 | x12 | x12 | x12 | x12 | x12 | x12 | x12 | x12 | x12 | x12 | x12 | x12 | x12 | x12 | %16
 x12 | x12 | x12 | x3[K:bass] x6[K:treble] x3 | x12 | x12 | x12 | x12 | x12 | x12 | x12 | x12 | %28
 x12 | x12 | x12 | x12 | x12 | x12 | x12 | x12 | x3!8va(! x9 | x12!8va)! | x12 | x12 | %40
 z2 z B3 _e2 d ec_c | x12 | x12 | x12 | x12 | x12 | x12 | x12 | x12 | x12 | x12 | x12 | x12 | x12 | %54
 x12 | x12 | x12 | x12 | x12 | x12 | x12 | x12 | x12 | x12 |!8va(! x6!8va)! x6 | x12 | x9 |] %67

